svgs/duotone/note-medical.svg

<svg xmlns="http://www.w3.org/2000/svg" viewBox="0 0 448 512"><!--! Font Awesome Pro 6.6.0 by @fontawesome - https://fontawesome.com License - https://fontawesome.com/license (Commercial License) Copyright 2024 Fonticons, Inc. --><defs><style>.fa-secondary{opacity:.4}</style></defs><path class="fa-secondary" d="M0 96C0 60.7 28.7 32 64 32l320 0c35.3 0 64 28.7 64 64l0 224-128 0c-17.7 0-32 14.3-32 32l0 128L64 480c-35.3 0-64-28.7-64-64L0 96zM128 208l0 32c0 8.8 7.2 16 16 16l48 0 0 48c0 8.8 7.2 16 16 16l32 0c8.8 0 16-7.2 16-16l0-48 48 0c8.8 0 16-7.2 16-16l0-32c0-8.8-7.2-16-16-16l-48 0 0-48c0-8.8-7.2-16-16-16l-32 0c-8.8 0-16 7.2-16 16l0 48-48 0c-8.8 0-16 7.2-16 16z"/><path class="fa-primary" d="M192 144c0-8.8 7.2-16 16-16l32 0c8.8 0 16 7.2 16 16l0 48 48 0c8.8 0 16 7.2 16 16l0 32c0 8.8-7.2 16-16 16l-48 0 0 48c0 8.8-7.2 16-16 16l-32 0c-8.8 0-16-7.2-16-16l0-48-48 0c-8.8 0-16-7.2-16-16l0-32c0-8.8 7.2-16 16-16l48 0 0-48zm96 336l0-128c0-17.7 14.3-32 32-32l128 0 0 5.5c0 17-6.7 33.3-18.7 45.3l-90.5 90.5c-12 12-28.3 18.7-45.3 18.7l-5.5 0z"/></svg>

<svg xmlns="http://www.w3.org/2000/svg" viewBox="0 0 448 512"><!--! Font Awesome Pro 6.4.0 by @fontawesome - https://fontawesome.com License - https://fontawesome.com/license (Commercial License) Copyright 2023 Fonticons, Inc. --><defs><style>.fa-secondary{opacity:.4}</style></defs><path class="fa-primary" d="M192 144c0-8.8 7.2-16 16-16h32c8.8 0 16 7.2 16 16v48l48 0c8.8 0 16 7.2 16 16v32c0 8.8-7.2 16-16 16H256v48c0 8.8-7.2 16-16 16H208c-8.8 0-16-7.2-16-16V256H144c-8.8 0-16-7.2-16-16V208c0-8.8 7.2-16 16-16l48 0V144zm96 336V352c0-17.7 14.3-32 32-32H448v5.5c0 17-6.7 33.3-18.7 45.3l-90.5 90.5c-12 12-28.3 18.7-45.3 18.7H288z"/><path class="fa-secondary" d="M0 96C0 60.7 28.7 32 64 32H384c35.3 0 64 28.7 64 64V320H320c-17.7 0-32 14.3-32 32V480H64c-35.3 0-64-28.7-64-64V96zm192 48v48H144c-8.8 0-16 7.2-16 16v32c0 8.8 7.2 16 16 16h48v48c0 8.8 7.2 16 16 16h32c8.8 0 16-7.2 16-16V256h48c8.8 0 16-7.2 16-16V208c0-8.8-7.2-16-16-16H256V144c0-8.8-7.2-16-16-16H208c-8.8 0-16 7.2-16 16z"/></svg>
